launcher/android/assets/skins/day/svg/multiStage.svg

<svg enable-background="new 0 0 220.00 232.00" height="232" viewBox="0 0 220 232" width="220" xmlns="http://www.w3.org/2000/svg"><g fill="#7a1111" stroke-linejoin="round"><path d="m25.0679 74.8195c-1.2083-3.5416-1.6249-6.8471-1.4861-11.0139.139-4.1666.8334-9.1943 3.9305-12.9582 3.0973-3.764 8.5973-6.264 13.2813-6.6077 4.6841-.3438 8.5521 1.4687 11.2153 4.8542 2.6632 3.3854 4.1215 8.3438 5.2048 12.5729 1.0834 4.2291 1.7917 7.7291 2.7084 11.1041.9166 3.375 2.0416 6.625 3.3958 9.9584s2.9375 6.75 4.4271 9.7535 2.8855 5.5937 3.5834 7.2776c.698 1.6846.698 2.4616-2.0799 4.7956-2.7777 2.333-8.3332 6.222-11.486 8.319s-3.9029 2.403-5.2779 1.833c-1.375-.569-3.375-2.013-6.1111-5.388-2.736-3.375-6.2083-8.681-9.0138-12.9033-2.8056-4.2222-4.9445-7.3611-7.014-10.8193-2.0695-3.4583-4.0695-7.2361-5.2778-10.7779z"/><path d="m60.5679 119.459c2.8055-2.236 8.0277-6.431 10.9305-8.459 2.9028-2.027 3.4861-1.889 4.2361-1.222s1.6667 1.861 3.0973 3.764c1.4305 1.903 3.375 4.514 4.3333 7.306.9583 2.791.9305 5.763-.0764 8.215-1.0069 2.451-2.993 4.382-5.7569 5.368s-6.3056 1.028-8.6181.423c-2.3125-.604-3.3958-1.854-4.8958-3.687s-3.4167-4.25-4.625-5.833c-1.2084-1.584-1.7084-2.334-1.7639-2.848-.0556-.514.3333-.791 3.1389-3.027z"/><path d="m170.233 104.712c-1.431-3.458-3.3-6.2157-6.156-9.2533-2.855-3.0376-6.696-6.3552-11.507-7.1372-4.812-.7819-10.593.9719-14.338 3.8064-3.745 2.8344-5.453 6.7495-5.218 11.0501.235 4.301 2.413 8.988 4.392 12.88 1.979 3.891 3.758 6.988 5.298 10.128 1.539 3.14 2.84 6.323 4.024 9.721s2.251 7.009 3.115 10.248 1.526 6.106 2.114 7.832c.587 1.726 1.101 2.31 4.728 2.228 3.627-.081 10.367-.829 14.119-1.335 3.753-.507 4.518-.772 5.175-2.108.656-1.335 1.205-3.741 1.031-8.082-.173-4.341-1.068-10.619-1.749-15.642-.68-5.024-1.147-8.793-1.876-12.757s-1.721-8.121-3.152-11.579z"/><path d="m173.044 161.677c-3.583.173-10.275.47-13.794.864s-3.865.883-3.988 1.879-.023 2.498.159 4.872c.181 2.373.445 5.618 1.569 8.348 1.123 2.729 3.106 4.943 5.481 6.119s5.141 1.315 7.868.231 5.414-3.392 6.752-5.372c1.338-1.981 1.327-3.635 1.243-6.002s-.24-5.448-.378-7.435-.258-2.88-.555-3.303c-.298-.422-.773-.374-4.357-.201z"/></g></svg>

﻿<?xml version="1.0" encoding="utf-8"?>
<!DOCTYPE svg PUBLIC "-//W3C//DTD SVG 1.1//EN" "http://www.w3.org/Graphics/SVG/1.1/DTD/svg11.dtd">
<svg xmlns="http://www.w3.org/2000/svg" xmlns:xlink="http://www.w3.org/1999/xlink" version="1.1" baseProfile="full" width="220" height="232" viewBox="0 0 220.00 232.00" enable-background="new 0 0 220.00 232.00" xml:space="preserve">
	<g>
		<path fill="#7A1111" fill-opacity="1" stroke-linejoin="round" d="M 25.0679,74.8195C 23.8596,71.2779 23.443,67.9724 23.5818,63.8056C 23.7208,59.639 24.4152,54.6113 27.5123,50.8474C 30.6096,47.0834 36.1096,44.5834 40.7936,44.2397C 45.4777,43.8959 49.3457,45.7084 52.0089,49.0939C 54.6721,52.4793 56.1304,57.4377 57.2137,61.6668C 58.2971,65.8959 59.0054,69.3959 59.9221,72.7709C 60.8387,76.1459 61.9637,79.3959 63.3179,82.7293C 64.6721,86.0627 66.2554,89.4793 67.745,92.4828C 69.2346,95.4863 70.6305,98.0765 71.3284,99.7604C 72.0264,101.445 72.0264,102.222 69.2485,104.556C 66.4708,106.889 60.9153,110.778 57.7625,112.875C 54.6097,114.972 53.8596,115.278 52.4846,114.708C 51.1096,114.139 49.1096,112.695 46.3735,109.32C 43.6375,105.945 40.1652,100.639 37.3597,96.4167C 34.5541,92.1945 32.4152,89.0556 30.3457,85.5974C 28.2762,82.1391 26.2762,78.3613 25.0679,74.8195 Z "/>
		<path fill="#7A1111" fill-opacity="1" stroke-linejoin="round" d="M 60.5679,119.459C 63.3734,117.223 68.5956,113.028 71.4984,111C 74.4012,108.973 74.9845,109.111 75.7345,109.778C 76.4845,110.445 77.4012,111.639 78.8318,113.542C 80.2623,115.445 82.2068,118.056 83.1651,120.848C 84.1234,123.639 84.0956,126.611 83.0887,129.063C 82.0818,131.514 80.0957,133.445 77.3318,134.431C 74.5679,135.417 71.0262,135.459 68.7137,134.854C 66.4012,134.25 65.3179,133 63.8179,131.167C 62.3179,129.334 60.4012,126.917 59.1929,125.334C 57.9845,123.75 57.4845,123 57.429,122.486C 57.3734,121.972 57.7623,121.695 60.5679,119.459 Z "/>
	</g>
	<g>
		<path fill="#7A1111" fill-opacity="1" stroke-linejoin="round" d="M 170.233,104.712C 168.802,101.254 166.933,98.4963 164.077,95.4587C 161.222,92.4211 157.381,89.1035 152.57,88.3215C 147.758,87.5396 141.977,89.2934 138.232,92.1279C 134.487,94.9623 132.779,98.8774 133.014,103.178C 133.249,107.479 135.427,112.166 137.406,116.058C 139.385,119.949 141.164,123.046 142.704,126.186C 144.243,129.326 145.544,132.509 146.728,135.907C 147.912,139.305 148.979,142.916 149.843,146.155C 150.707,149.394 151.369,152.261 151.957,153.987C 152.544,155.713 153.058,156.297 156.685,156.215C 160.312,156.134 167.052,155.386 170.804,154.88C 174.557,154.373 175.322,154.108 175.979,152.772C 176.635,151.437 177.184,149.031 177.01,144.69C 176.837,140.349 175.942,134.071 175.261,129.048C 174.581,124.024 174.114,120.255 173.385,116.291C 172.656,112.327 171.664,108.17 170.233,104.712 Z "/>
		<path fill="#7A1111" fill-opacity="1" stroke-linejoin="round" d="M 173.044,161.677C 169.461,161.85 162.769,162.147 159.25,162.541C 155.731,162.935 155.385,163.424 155.262,164.42C 155.139,165.416 155.239,166.918 155.421,169.292C 155.602,171.665 155.866,174.91 156.99,177.64C 158.113,180.369 160.096,182.583 162.471,183.759C 164.846,184.935 167.612,185.074 170.339,183.99C 173.066,182.906 175.753,180.598 177.091,178.618C 178.429,176.637 178.418,174.983 178.334,172.616C 178.25,170.249 178.094,167.168 177.956,165.181C 177.818,163.194 177.698,162.301 177.401,161.878C 177.103,161.456 176.628,161.504 173.044,161.677 Z "/>
	</g>
</svg>
